src/_h5ai/public/images/ui/tree-toggle.svg

<svg xmlns:svg="http://www.w3.org/2000/svg" xmlns="http://www.w3.org/2000/svg" version="1.1" width="24" height="24" viewBox="0 0 24 24">
  <path d="M4 3 4 6 7 6 7 3zm5 0 0 3 8 0 0-3zm-3 5 0 3 3 0 0-3zm5 0 0 3 9 0 0-3zm-5 5 0 3 3 0 0-3zm5 0 0 3 6 0 0-3zm-5 5 0 3 3 0 0-3zm5 0 0 3 8 0 0-3z" fill="#555"/>
</svg>

<?xml version="1.0" encoding="utf-8"?>
<!-- Generator: Adobe Illustrator 23.0.1, SVG Export Plug-In . SVG Version: 6.00 Build 0)  -->
<svg version="1.1" id="Calque_1" xmlns:svg="http://www.w3.org/2000/svg"
	 xmlns="http://www.w3.org/2000/svg" xmlns:xlink="http://www.w3.org/1999/xlink" x="0px" y="0px" viewBox="0 0 24 24"
	 style="enable-background:new 0 0 24 24;" xml:space="preserve">
<style type="text/css">
	.st0{fill:#B7B7B7;}
</style>
<path class="st0" d="M4,3v3h3V3H4z M9,3v3h8V3H9z M6,8v3h3V8H6z M11,8v3h9V8H11z M6,13v3h3v-3H6z M11,13v3h6v-3H11z M6,18v3h3v-3H6z
	 M11,18v3h8v-3H11z"/>
</svg>
